; generated by PrusaSlicer 2.2.0+win64 on 2021-01-09 at 00:09:03 UTC

; 

; external perimeters extrusion width = 0.45mm
; perimeters extrusion width = 0.45mm
; infill extrusion width = 0.45mm
; solid infill extrusion width = 0.45mm
; top infill extrusion width = 0.40mm
; first layer extrusion width = 0.42mm

M73 P0 R186
M73 Q0 S192
M201 X1000 Y1000 Z200 E5000 ; sets maximum accelerations, mm/sec^2
M203 X200 Y200 Z12 E120 ; sets maximum feedrates, mm/sec
M204 P1250 R1250 T1250 ; sets acceleration (P, T) and retract acceleration (R), mm/sec^2
M205 X8.00 Y8.00 Z0.40 E4.50 ; sets the jerk limits, mm/sec
M205 S0 T0 ; sets the minimum extruding and travel feed rate, mm/sec
M107
M862.3 P "MK3S" ; printer model check
M862.1 P0.4 ; nozzle diameter check
M115 U3.9.1 ; tell printer latest fw version
G90 ; use absolute coordinates
M83 ; extruder relative mode
M104 S215 ; set extruder temp
M140 S60 ; set bed temp
M190 S60 ; wait for bed temp
M109 S215 ; wait for extruder temp
G28 W ; home all without mesh bed level
G80 ; mesh bed leveling
G1 Y-3.0 F1000.0 ; go outside print area
G92 E0.0
G1 X60.0 E9.0 F1000.0 ; intro line
M73 Q0 S192
M73 P0 R186
G1 X100.0 E12.5 F1000.0 ; intro line
G92 E0.0
M221 S95

; Don't change E values below. Excessive value can damage the printer.

M907 E538 ; set extruder motor current
G21 ; set units to millimeters
G90 ; use absolute coordinates
M83 ; use relative distances for extrusion
M900 K0.05 ; Filament gcode LA 1.5
M900 K30 ; Filament gcode LA 1.0
;BEFORE_LAYER_CHANGE
G92 E0.0
;0.2


G1 E-0.80000 F2100.00000
G1 Z0.600 F10800.000
;AFTER_LAYER_CHANGE
;0.2
G1 X59.066 Y36.814
G1 Z0.200
G1 E0.80000 F2100.00000
M204 S1000
G1 F1200.000
G1 X59.988 Y36.623 E0.02954
G1 X190.004 Y36.623 E4.07654
G1 X190.610 Y36.703 E0.01917
G1 X191.173 Y36.932 E0.01906
G1 X191.662 Y37.300 E0.01917
G1 X192.040 Y37.780 E0.01917
G1 X198.626 Y50.437 E0.44736
G1 X198.810 Y50.941 E0.01680
G1 X198.877 Y51.472 E0.01680
G1 X198.873 Y159.641 E3.39155
G1 X198.784 Y160.158 E0.01645
G1 X198.582 Y160.646 E0.01657
G1 X192.064 Y172.180 E0.41539
G1 X191.708 Y172.653 E0.01858
G1 X190.928 Y173.189 E0.02966
G1 X190.000 Y173.377 E0.02968
G1 X59.989 Y173.377 E4.07642
G1 X59.105 Y173.202 E0.02825
G1 X58.347 Y172.708 E0.02837
G1 X57.939 Y172.184 E0.02083
G1 X51.414 Y160.640 E0.41577
G1 X51.197 Y160.088 E0.01858
G1 X51.123 Y159.500 E0.01859
G1 X51.127 Y51.359 E3.39068
G1 X51.207 Y50.875 E0.01538
G1 X51.384 Y50.418 E0.01538
G1 X57.898 Y37.890 E0.44274
G1 X58.293 Y37.346 E0.02107
G1 X59.016 Y36.848 E0.02754
G1 F8640.000
G1 X59.988 Y36.623 E-0.23038
G1 X62.282 Y36.623 E-0.52962
G1 E-0.04000 F2100.00000
G1 Z0.800 F10800.000
G1 X131.735 Y114.735
G1 Z0.200
G1 E0.80000 F2100.00000
G1 F1200.000
G1 X131.948 Y114.552 E0.00881
G1 X132.188 Y114.406 E0.00880
G1 X132.447 Y114.298 E0.00880
G1 X132.720 Y114.233 E0.00880
G1 X132.969 Y114.213 E0.00783
G1 X151.083 Y114.213 E0.56796
G1 X151.350 Y114.235 E0.00839
G1 X151.641 Y114.311 E0.00943
G1 X151.916 Y114.433 E0.00943
G1 X152.166 Y114.601 E0.00943
G1 X152.385 Y114.807 E0.00943
G1 X152.566 Y115.048 E0.00943
G1 X152.704 Y115.315 E0.00943
G1 X152.795 Y115.602 E0.00943
G1 X152.837 Y115.900 E0.00943
G1 X152.829 Y116.200 E0.00943
G1 X152.770 Y116.496 E0.00943
G1 X152.663 Y116.777 E0.00943
G1 X152.510 Y117.036 E0.00943
G1 X152.337 Y117.240 E0.00839
G1 X134.240 Y135.337 E0.80246
G1 X134.036 Y135.510 E0.00839
G1 X133.777 Y135.663 E0.00943
G1 X133.496 Y135.770 E0.00943
G1 X133.200 Y135.829 E0.00943
G1 X132.900 Y135.837 E0.00943
G1 X132.602 Y135.795 E0.00943
G1 X132.315 Y135.704 E0.00943
G1 X132.048 Y135.566 E0.00943
G1 X131.807 Y135.385 E0.00943
G1 X131.601 Y135.166 E0.00943
G1 X131.433 Y134.916 E0.00943
G1 X131.311 Y134.641 E0.00943
G1 X131.235 Y134.350 E0.00943
G1 X131.213 Y134.083 E0.00839
G1 X131.213 Y115.969 E0.56796
G1 X131.233 Y115.720 E0.00783
G1 X131.298 Y115.447 E0.00880
G1 X131.406 Y115.188 E0.00880
G1 X131.552 Y114.948 E0.00880
G1 X131.696 Y114.780 E0.00692
G1 X131.982 Y115.025 F10800.000
G1 F1200.000
G1 X132.170 Y114.858 E0.00788
G1 X132.359 Y114.743 E0.00694
G1 X132.564 Y114.658 E0.00694
G1 X132.779 Y114.606 E0.00694
G1 X132.984 Y114.590 E0.00644
G1 X151.068 Y114.590 E0.56700
G1 X151.287 Y114.608 E0.00690
G1 X151.516 Y114.668 E0.00744
G1 X151.733 Y114.765 E0.00744
G1 X151.930 Y114.896 E0.00744
G1 X152.103 Y115.059 E0.00744
G1 X152.245 Y115.249 E0.00744
G1 X152.354 Y115.460 E0.00744
G1 X152.426 Y115.686 E0.00744
G1 X152.459 Y115.921 E0.00744
G1 X152.453 Y116.158 E0.00744
G1 X152.407 Y116.391 E0.00744
G1 X152.322 Y116.612 E0.00744
G1 X152.201 Y116.817 E0.00744
G1 X152.059 Y116.985 E0.00690
G1 X133.985 Y135.059 E0.80146
G1 X133.817 Y135.201 E0.00690
G1 X133.612 Y135.322 E0.00744
G1 X133.391 Y135.407 E0.00744
G1 X133.158 Y135.453 E0.00744
G1 X132.921 Y135.459 E0.00744
G1 X132.686 Y135.426 E0.00744
G1 X132.460 Y135.354 E0.00744
G1 X132.249 Y135.245 E0.00744
G1 X132.059 Y135.103 E0.00744
G1 X131.896 Y134.930 E0.00744
G1 X131.765 Y134.733 E0.00744
G1 X131.668 Y134.516 E0.00744
G1 X131.608 Y134.287 E0.00744
G1 X131.590 Y134.068 E0.00690
G1 X131.590 Y115.984 E0.56700
G1 X131.606 Y115.779 E0.00644
G1 X131.658 Y115.564 E0.00694
G1 X131.743 Y115.359 E0.00694
G1 X131.858 Y115.170 E0.00694
G1 X131.943 Y115.071 E0.00411
G1 X131.914 Y114.783 F10800.000
G1 F8640.000
G1 X132.170 Y114.858 E-0.07181
G1 X132.359 Y114.743 E-0.05113
G1 X132.564 Y114.658 E-0.05113
G1 X132.779 Y114.606 E-0.05114
G1 X132.984 Y114.590 E-0.04740
G1 X135.095 Y114.590 E-0.48739
G1 E-0.04000 F2100.00000
G1 Z0.800 F10800.000
G1 X145.648 Y128.775
G1 Z0.200
G1 E0.80000 F2100.00000
G1 F1200.000
G1 X154.760 Y119.663 E0.40405
G1 X154.964 Y119.490 E0.00839
G1 X155.223 Y119.337 E0.00943
G1 X155.505 Y119.230 E0.00943
G1 X155.800 Y119.171 E0.00943
G1 X156.073 Y119.163 E0.00857
G1 X156.394 Y119.203 E0.01013
G1 X156.685 Y119.296 E0.00959
G1 X156.952 Y119.434 E0.00943
G1 X157.193 Y119.615 E0.00943
G1 X157.399 Y119.834 E0.00943
G1 X157.567 Y120.084 E0.00943
G1 X157.689 Y120.359 E0.00943
G1 X157.765 Y120.650 E0.00943
G1 X157.787 Y120.917 E0.00839
G1 X157.787 Y139.031 E0.56796
G1 X157.767 Y139.280 E0.00783
G1 X157.702 Y139.553 E0.00880
G1 X157.594 Y139.812 E0.00881
G1 X157.448 Y140.052 E0.00880
G1 X157.265 Y140.265 E0.00880
G1 X157.052 Y140.448 E0.00880
G1 X156.812 Y140.594 E0.00880
G1 X156.553 Y140.702 E0.00880
G1 X156.280 Y140.767 E0.00880
G1 X156.031 Y140.787 E0.00783
G1 X137.917 Y140.787 E0.56796
G1 X137.650 Y140.765 E0.00839
G1 X137.359 Y140.689 E0.00943
G1 X137.084 Y140.567 E0.00943
G1 X136.834 Y140.399 E0.00943
G1 X136.615 Y140.193 E0.00943
G1 X136.434 Y139.952 E0.00943
G1 X136.296 Y139.685 E0.00943
G1 X136.205 Y139.398 E0.00943
G1 X136.163 Y139.100 E0.00943
G1 X136.171 Y138.800 E0.00943
G1 X136.230 Y138.504 E0.00943
G1 X136.337 Y138.223 E0.00943
G1 X136.490 Y137.964 E0.00943
G1 X136.663 Y137.760 E0.00839
G1 X145.605 Y128.817 E0.39652
G1 X145.872 Y129.084 F10800.000
G1 F1200.000
G1 X155.015 Y119.941 E0.40543
G1 X155.183 Y119.799 E0.00690
G1 X155.388 Y119.678 E0.00744
G1 X155.609 Y119.593 E0.00744
G1 X155.842 Y119.547 E0.00744
G1 X156.055 Y119.541 E0.00668
G1 X156.312 Y119.573 E0.00813
G1 X156.540 Y119.646 E0.00749
G1 X156.751 Y119.755 E0.00744
G1 X156.941 Y119.897 E0.00744
G1 X157.104 Y120.070 E0.00744
G1 X157.235 Y120.267 E0.00744
G1 X157.332 Y120.484 E0.00744
G1 X157.392 Y120.713 E0.00744
G1 X157.410 Y120.932 E0.00690
G1 X157.410 Y139.016 E0.56700
G1 X157.394 Y139.221 E0.00644
G1 X157.342 Y139.436 E0.00694
G1 X157.257 Y139.641 E0.00694
G1 X157.142 Y139.830 E0.00694
G1 X156.998 Y139.998 E0.00694
G1 X156.830 Y140.142 E0.00694
G1 X156.641 Y140.257 E0.00694
G1 X156.436 Y140.342 E0.00694
G1 X156.221 Y140.394 E0.00694
G1 X156.016 Y140.410 E0.00644
G1 X137.932 Y140.410 E0.56700
G1 X137.713 Y140.392 E0.00690
G1 X137.484 Y140.332 E0.00744
G1 X137.267 Y140.235 E0.00744
G1 X137.070 Y140.104 E0.00744
G1 X136.897 Y139.941 E0.00744
G1 X136.755 Y139.751 E0.00744
G1 X136.646 Y139.540 E0.00744
G1 X136.574 Y139.314 E0.00744
G1 X136.541 Y139.079 E0.00744
G1 X136.547 Y138.842 E0.00744
G1 X136.593 Y138.609 E0.00744
G1 X136.678 Y138.388 E0.00744
G1 X136.799 Y138.183 E0.00744
G1 X136.941 Y138.015 E0.00690
G1 X145.829 Y129.126 E0.39414
G1 X145.768 Y128.698 F10800.000
G1 F8640.000
G1 X148.157 Y126.799 E-0.76000
G1 E-0.04000 F2100.00000
G1 Z0.800 F10800.000
G1 X156.763 Y154.869
G1 Z0.200
G1 E0.80000 F2100.00000
G1 F1200.000
G1 X157.049 Y154.768 E0.00952
G1 X157.344 Y154.717 E0.00938
G1 X157.656 Y154.717 E0.00978
G1 X157.951 Y154.768 E0.00938
G1 X158.237 Y154.869 E0.00952
G1 X158.502 Y155.017 E0.00952
G1 X158.739 Y155.208 E0.00952
G1 X158.939 Y155.436 E0.00952
G1 X159.098 Y155.694 E0.00952
G1 X159.211 Y155.976 E0.00952
G1 X159.275 Y156.273 E0.00952
G1 X159.288 Y156.576 E0.00952
G1 X159.250 Y156.877 E0.00952
G1 X159.161 Y157.167 E0.00952
G1 X159.024 Y157.438 E0.00952
G1 X158.844 Y157.683 E0.00952
G1 X158.624 Y157.893 E0.00952
G1 X158.373 Y158.063 E0.00952
G1 X158.096 Y158.188 E0.00952
G1 X157.802 Y158.264 E0.00952
G1 X157.500 Y158.290 E0.00952
G1 X157.198 Y158.264 E0.00952
G1 X156.904 Y158.188 E0.00952
G1 X156.627 Y158.063 E0.00952
G1 X156.376 Y157.893 E0.00952
G1 X156.156 Y157.683 E0.00952
G1 X155.976 Y157.438 E0.00952
G1 X155.839 Y157.167 E0.00952
G1 X155.750 Y156.877 E0.00952
G1 X155.712 Y156.576 E0.00952
G1 X155.725 Y156.273 E0.00952
G1 X155.789 Y155.976 E0.00952
G1 X155.902 Y155.694 E0.00952
G1 X156.061 Y155.436 E0.00952
G1 X156.261 Y155.208 E0.00952
G1 X156.498 Y155.017 E0.00952
G1 X156.710 Y154.898 E0.00764
G1 X156.894 Y155.227 F10800.000
G1 F1200.000
G1 X157.144 Y155.134 E0.00837
G1 X157.376 Y155.094 E0.00737
G1 X157.624 Y155.094 E0.00777
G1 X157.856 Y155.134 E0.00737
G1 X158.081 Y155.214 E0.00751
G1 X158.290 Y155.331 E0.00751
G1 X158.477 Y155.481 E0.00751
G1 X158.635 Y155.661 E0.00751
G1 X158.760 Y155.865 E0.00751
G1 X158.850 Y156.087 E0.00751
G1 X158.900 Y156.321 E0.00751
G1 X158.910 Y156.560 E0.00751
G1 X158.880 Y156.797 E0.00751
G1 X158.810 Y157.026 E0.00751
G1 X158.702 Y157.240 E0.00751
G1 X158.560 Y157.433 E0.00751
G1 X158.387 Y157.598 E0.00751
G1 X158.188 Y157.732 E0.00751
G1 X157.970 Y157.831 E0.00751
G1 X157.739 Y157.891 E0.00751
G1 X157.500 Y157.911 E0.00751
G1 X157.261 Y157.891 E0.00751
G1 X157.030 Y157.831 E0.00751
G1 X156.812 Y157.732 E0.00751
G1 X156.613 Y157.598 E0.00751
G1 X156.440 Y157.433 E0.00751
G1 X156.298 Y157.240 E0.00751
G1 X156.190 Y157.026 E0.00751
G1 X156.120 Y156.797 E0.00751
G1 X156.090 Y156.560 E0.00751
G1 X156.100 Y156.321 E0.00751
G1 X156.150 Y156.087 E0.00751
G1 X156.240 Y155.865 E0.00751
G1 X156.365 Y155.661 E0.00751
G1 X156.523 Y155.481 E0.00751
G1 X156.710 Y155.331 E0.00751
G1 X156.842 Y155.257 E0.00475
G1 X156.917 Y154.961 F10800.000
G1 F8640.000
G1 X157.144 Y155.134 E-0.07536
G1 X157.376 Y155.094 E-0.05429
G1 X157.624 Y155.094 E-0.05722
G1 X157.856 Y155.134 E-0.05429
G1 X158.081 Y155.214 E-0.05528
G1 X158.290 Y155.331 E-0.05528
G1 X158.477 Y155.481 E-0.05528
G1 X158.635 Y155.661 E-0.05528
G1 X158.760 Y155.865 E-0.05528
G1 X158.850 Y156.087 E-0.05528
G1 X158.900 Y156.321 E-0.05528
G1 X158.910 Y156.560 E-0.05528
G1 X158.880 Y156.797 E-0.05528
G1 X158.853 Y156.886 E-0.02132
G1 E-0.04000 F2100.00000
G1 Z0.800 F10800.000
G1 X183.719 Y156.399
G1 Z0.200
G1 E0.80000 F2100.00000
G1 F1200.000
G1 X183.725 Y156.273 E0.00397
G1 X183.789 Y155.976 E0.00952
G1 X183.902 Y155.694 E0.00952
G1 X184.061 Y155.436 E0.00952
G1 X184.261 Y155.208 E0.00952
G1 X184.498 Y155.017 E0.00952
G1 X184.763 Y154.869 E0.00952
G1 X185.049 Y154.768 E0.00952
G1 X185.344 Y154.717 E0.00939
G1 X185.656 Y154.717 E0.00978
G1 X185.951 Y154.768 E0.00938
G1 X186.237 Y154.869 E0.00952
G1 X186.502 Y155.017 E0.00952
G1 X186.739 Y155.208 E0.00952
G1 X186.939 Y155.436 E0.00952
G1 X187.098 Y155.694 E0.00952
G1 X187.211 Y155.976 E0.00952
G1 X187.275 Y156.273 E0.00952
G1 X187.288 Y156.576 E0.00952
G1 X187.250 Y156.877 E0.00952
G1 X187.161 Y157.167 E0.00952
G1 X187.024 Y157.438 E0.00952
G1 X186.844 Y157.683 E0.00952
G1 X186.624 Y157.893 E0.00952
G1 X186.373 Y158.063 E0.00952
G1 X186.096 Y158.188 E0.00952
G1 X185.803 Y158.264 E0.00952
G1 X185.500 Y158.290 E0.00952
G1 X185.197 Y158.264 E0.00952
G1 X184.904 Y158.188 E0.00952
G1 X184.627 Y158.063 E0.00952
G1 X184.376 Y157.893 E0.00952
G1 X184.156 Y157.683 E0.00952
G1 X183.976 Y157.438 E0.00952
G1 X183.839 Y157.167 E0.00952
G1 X183.750 Y156.877 E0.00952
G1 X183.712 Y156.576 E0.00952
G1 X183.717 Y156.459 E0.00367
G1 X184.093 Y156.475 F10800.000
G1 F1200.000
G1 X184.100 Y156.321 E0.00485
G1 X184.150 Y156.087 E0.00751
G1 X184.240 Y155.865 E0.00751
G1 X184.365 Y155.661 E0.00751
G1 X184.523 Y155.481 E0.00751
G1 X184.710 Y155.331 E0.00751
G1 X184.919 Y155.214 E0.00751
G1 X185.144 Y155.134 E0.00751
G1 X185.376 Y155.094 E0.00737
G1 X185.624 Y155.094 E0.00777
G1 X185.856 Y155.134 E0.00737
G1 X186.081 Y155.214 E0.00751
G1 X186.290 Y155.331 E0.00751
G1 X186.477 Y155.481 E0.00751
G1 X186.635 Y155.661 E0.00751
G1 X186.760 Y155.865 E0.00751
G1 X186.850 Y156.087 E0.00751
G1 X186.900 Y156.321 E0.00751
G1 X186.910 Y156.560 E0.00751
G1 X186.880 Y156.797 E0.00751
G1 X186.810 Y157.026 E0.00751
G1 X186.702 Y157.240 E0.00751
G1 X186.560 Y157.433 E0.00751
G1 X186.387 Y157.598 E0.00751
G1 X186.188 Y157.732 E0.00751
G1 X185.970 Y157.831 E0.00751
G1 X185.739 Y157.891 E0.00751
G1 X185.500 Y157.911 E0.00751
G1 X185.261 Y157.891 E0.00751
G1 X185.030 Y157.831 E0.00751
G1 X184.812 Y157.732 E0.00751
G1 X184.613 Y157.598 E0.00751
G1 X184.440 Y157.433 E0.00751
G1 X184.298 Y157.240 E0.00751
G1 X184.190 Y157.026 E0.00751
G1 X184.120 Y156.797 E0.00751
G1 X184.091 Y156.535 E0.00827
G1 X183.957 Y156.402 F10800.000
G1 F8640.000
G1 X184.100 Y156.321 E-0.04955
G1 X184.150 Y156.087 E-0.05528
G1 X184.240 Y155.865 E-0.05528
G1 X184.365 Y155.661 E-0.05528
G1 X184.523 Y155.481 E-0.05528
G1 X184.710 Y155.331 E-0.05528
G1 X184.919 Y155.214 E-0.05528
G1 X185.144 Y155.134 E-0.05528
G1 X185.376 Y155.094 E-0.05429
G1 X185.624 Y155.094 E-0.05722
G1 X185.856 Y155.134 E-0.05429
G1 X186.081 Y155.214 E-0.05528
G1 X186.290 Y155.331 E-0.05528
G1 X186.449 Y155.459 E-0.04713
G1 E-0.04000 F2100.00000
G1 Z0.800 F10800.000
G1 X113.795 Y139.398
G1 Z0.200
G1 E0.80000 F2100.00000
G1 F1200.000
G1 X113.704 Y139.685 E0.00943
G1 X113.566 Y139.952 E0.00943
G1 X113.385 Y140.193 E0.00943
G1 X113.166 Y140.399 E0.00943
G1 X112.916 Y140.567 E0.00943
G1 X112.641 Y140.689 E0.00943
G1 X112.350 Y140.765 E0.00943
G1 X112.083 Y140.787 E0.00839
G1 X93.969 Y140.787 E0.56796
G1 X93.720 Y140.767 E0.00783
G1 X93.447 Y140.702 E0.00880
G1 X93.188 Y140.594 E0.00881
G1 X92.948 Y140.448 E0.00880
G1 X92.735 Y140.265 E0.00880
G1 X92.552 Y140.052 E0.00880
G1 X92.406 Y139.812 E0.00880
G1 X92.298 Y139.553 E0.00881
G1 X92.233 Y139.280 E0.00880
G1 X92.213 Y139.031 E0.00783
G1 X92.213 Y120.917 E0.56796
G1 X92.235 Y120.650 E0.00839
G1 X92.311 Y120.359 E0.00943
G1 X92.433 Y120.084 E0.00943
G1 X92.601 Y119.834 E0.00943
G1 X92.807 Y119.615 E0.00943
G1 X93.048 Y119.434 E0.00943
G1 X93.315 Y119.296 E0.00943
G1 X93.602 Y119.205 E0.00943
G1 X93.872 Y119.167 E0.00857
G1 X94.196 Y119.170 E0.01013
G1 X94.495 Y119.230 E0.00959
G1 X94.777 Y119.337 E0.00943
G1 X95.036 Y119.490 E0.00943
G1 X95.240 Y119.663 E0.00839
G1 X113.337 Y137.760 E0.80246
G1 X113.510 Y137.964 E0.00839
G1 X113.663 Y138.223 E0.00943
G1 X113.770 Y138.505 E0.00943
G1 X113.829 Y138.800 E0.00943
G1 X113.837 Y139.100 E0.00943
G1 X113.804 Y139.339 E0.00755
G1 X113.430 Y139.286 F10800.000
G1 F1200.000
G1 X113.354 Y139.540 E0.00831
G1 X113.245 Y139.751 E0.00744
G1 X113.103 Y139.941 E0.00744
G1 X112.930 Y140.104 E0.00744
G1 X112.733 Y140.235 E0.00744
G1 X112.516 Y140.332 E0.00744
G1 X112.287 Y140.392 E0.00744
G1 X112.068 Y140.410 E0.00690
G1 X93.984 Y140.410 E0.56700
G1 X93.779 Y140.394 E0.00644
G1 X93.564 Y140.342 E0.00694
G1 X93.359 Y140.257 E0.00694
G1 X93.170 Y140.142 E0.00694
G1 X93.002 Y139.998 E0.00694
G1 X92.858 Y139.830 E0.00694
G1 X92.743 Y139.641 E0.00694
G1 X92.658 Y139.436 E0.00694
G1 X92.606 Y139.221 E0.00694
G1 X92.590 Y139.016 E0.00644
G1 X92.590 Y120.932 E0.56700
G1 X92.608 Y120.713 E0.00690
G1 X92.668 Y120.484 E0.00744
G1 X92.765 Y120.267 E0.00744
