; generated by PrusaSlicer 2.2.0+win64 on 2021-01-02 at 00:20:25 UTC

; 

; external perimeters extrusion width = 0.45mm
; perimeters extrusion width = 0.45mm
; infill extrusion width = 0.45mm
; solid infill extrusion width = 0.45mm
; top infill extrusion width = 0.40mm
; first layer extrusion width = 0.42mm

M73 P0 R174
M73 Q0 S175
M201 X1000 Y1000 Z200 E5000 ; sets maximum accelerations, mm/sec^2
M203 X200 Y200 Z12 E120 ; sets maximum feedrates, mm/sec
M204 P1250 R1250 T1250 ; sets acceleration (P, T) and retract acceleration (R), mm/sec^2
M205 X8.00 Y8.00 Z0.40 E4.50 ; sets the jerk limits, mm/sec
M205 S0 T0 ; sets the minimum extruding and travel feed rate, mm/sec
M107
M862.3 P "MK3S" ; printer model check
M862.1 P0.4 ; nozzle diameter check
M115 U3.9.1 ; tell printer latest fw version
G90 ; use absolute coordinates
M83 ; extruder relative mode
M104 S215 ; set extruder temp
M140 S60 ; set bed temp
M190 S60 ; wait for bed temp
M109 S215 ; wait for extruder temp
G28 W ; home all without mesh bed level
G80 ; mesh bed leveling
G1 Y-3.0 F1000.0 ; go outside print area
G92 E0.0
G1 X60.0 E9.0 F1000.0 ; intro line
M73 Q0 S175
M73 P0 R174
G1 X100.0 E12.5 F1000.0 ; intro line
G92 E0.0
M221 S95

; Don't change E values below. Excessive value can damage the printer.
M907 E430 ; set extruder motor current
G21 ; set units to millimeters
G90 ; use absolute coordinates
M83 ; use relative distances for extrusion
M900 K0.05 ; Filament gcode LA 1.5
M900 K30 ; Filament gcode LA 1.0
;BEFORE_LAYER_CHANGE
G92 E0.0
;0.2


G1 E-0.80000 F2100.00000
G1 Z0.600 F10800.000
;AFTER_LAYER_CHANGE
;0.2
G1 X63.216 Y44.090
G1 Z0.200
G1 E0.80000 F2100.00000
M204 S1000
G1 F1200.000
G1 X63.587 Y43.638 E0.01834
G1 X64.054 Y43.240 E0.01925
G1 X64.612 Y42.924 E0.02010
G1 X65.320 Y42.694 E0.02334
G1 X65.968 Y42.624 E0.02044
G1 X184.004 Y42.623 E3.70093
G1 X184.644 Y42.686 E0.02018
G1 X185.347 Y42.906 E0.02309
G1 X185.905 Y43.213 E0.01997
G1 X186.371 Y43.596 E0.01892
G1 X186.762 Y44.057 E0.01896
G1 X187.077 Y44.612 E0.01998
G1 X187.304 Y45.312 E0.02310
G1 X187.376 Y45.941 E0.01985
G1 X187.377 Y164.019 E3.70225
G1 X187.313 Y164.648 E0.01982
G1 X187.094 Y165.347 E0.02298
G1 X186.784 Y165.910 E0.02014
G1 X186.415 Y166.360 E0.01827
G1 X185.945 Y166.761 E0.01936
G1 X185.378 Y167.081 E0.02041
G1 X184.656 Y167.312 E0.02377
G1 X184.000 Y167.377 E0.02066
G1 X65.981 Y167.377 E3.70040
G1 X65.404 Y167.323 E0.01816
G1 X64.788 Y167.150 E0.02007
G1 X64.140 Y166.817 E0.02286
G1 X63.639 Y166.415 E0.02013
G1 X63.208 Y165.899 E0.02109
G1 X62.862 Y165.240 E0.02334
G1 X62.680 Y164.613 E0.02047
G1 X62.624 Y164.012 E0.01892
G1 X62.623 Y45.981 E3.70077
G1 X62.687 Y45.352 E0.01982
G1 X62.906 Y44.652 E0.02301
G1 X63.187 Y44.143 E0.01823
G1 F8640.000
G1 X63.587 Y43.638 E-0.14871
G1 X64.054 Y43.240 E-0.14174
G1 X64.612 Y42.924 E-0.14799
G1 X65.320 Y42.694 E-0.17186
G1 X65.964 Y42.624 E-0.14969
G1 E-0.04000 F2100.00000
G1 Z0.800 F10800.000
G1 X74.228 Y100.739
G1 Z0.200
G1 E0.80000 F2100.00000
G1 F1200.000
G1 X74.298 Y100.447 E0.00942
G1 X74.406 Y100.188 E0.00880
G1 X74.552 Y99.948 E0.00880
G1 X74.735 Y99.735 E0.00880
G1 X74.948 Y99.552 E0.00880
G1 X75.188 Y99.406 E0.00880
G1 X75.447 Y99.298 E0.00881
G1 X75.720 Y99.233 E0.00880
G1 X75.969 Y99.213 E0.00783
G1 X174.031 Y99.213 E3.07466
G1 X174.280 Y99.233 E0.00783
G1 X174.553 Y99.298 E0.00880
G1 X174.812 Y99.406 E0.00880
G1 X175.052 Y99.552 E0.00880
G1 X175.265 Y99.735 E0.00880
G1 X175.448 Y99.948 E0.00880
G1 X175.594 Y100.188 E0.00880
G1 X175.702 Y100.447 E0.00880
G1 X175.772 Y100.739 E0.00942
G1 X175.787 Y102.027 E0.04039
G1 X175.767 Y102.280 E0.00794
G1 X175.702 Y102.553 E0.00880
G1 X175.594 Y102.812 E0.00880
G1 X175.448 Y103.052 E0.00880
G1 X175.265 Y103.265 E0.00880
G1 X175.052 Y103.448 E0.00880
G1 X174.813 Y103.594 E0.00880
G1 X174.553 Y103.702 E0.00881
G1 X174.280 Y103.767 E0.00881
G1 X174.031 Y103.787 E0.00783
G1 X75.969 Y103.787 E3.07466
G1 X75.720 Y103.767 E0.00783
G1 X75.447 Y103.702 E0.00880
G1 X75.188 Y103.594 E0.00880
G1 X74.948 Y103.448 E0.00880
G1 X74.735 Y103.265 E0.00880
G1 X74.552 Y103.052 E0.00880
G1 X74.406 Y102.812 E0.00880
G1 X74.298 Y102.553 E0.00880
G1 X74.233 Y102.280 E0.00880
G1 X74.213 Y102.027 E0.00794
G1 X74.227 Y100.799 E0.03851
G1 X74.604 Y100.786 F10800.000
G1 F1200.000
G1 X74.658 Y100.564 E0.00716
G1 X74.743 Y100.359 E0.00694
G1 X74.858 Y100.170 E0.00694
G1 X75.002 Y100.002 E0.00694
G1 X75.170 Y99.858 E0.00694
G1 X75.359 Y99.743 E0.00694
G1 X75.564 Y99.658 E0.00694
G1 X75.779 Y99.606 E0.00694
G1 X75.984 Y99.590 E0.00644
G1 X174.016 Y99.590 E3.07373
G1 X174.221 Y99.606 E0.00644
G1 X174.436 Y99.658 E0.00694
G1 X174.641 Y99.743 E0.00694
G1 X174.830 Y99.858 E0.00694
G1 X174.998 Y100.002 E0.00694
G1 X175.142 Y100.170 E0.00694
G1 X175.257 Y100.359 E0.00694
G1 X175.342 Y100.564 E0.00694
G1 X175.396 Y100.786 E0.00717
G1 X175.410 Y102.015 E0.03853
G1 X175.394 Y102.221 E0.00648
G1 X175.342 Y102.436 E0.00694
G1 X175.257 Y102.641 E0.00694
G1 X175.142 Y102.830 E0.00694
G1 X174.998 Y102.998 E0.00694
G1 X174.830 Y103.142 E0.00694
G1 X174.641 Y103.257 E0.00694
G1 X174.436 Y103.342 E0.00695
G1 X174.221 Y103.394 E0.00694
G1 X174.016 Y103.410 E0.00644
G1 X75.984 Y103.410 E3.07373
G1 X75.779 Y103.394 E0.00644
G1 X75.564 Y103.342 E0.00694
G1 X75.359 Y103.257 E0.00694
G1 X75.170 Y103.142 E0.00694
G1 X75.002 Y102.998 E0.00694
G1 X74.858 Y102.830 E0.00694
G1 X74.743 Y102.641 E0.00694
G1 X74.658 Y102.436 E0.00694
G1 X74.606 Y102.221 E0.00694
G1 X74.590 Y102.015 E0.00648
G1 X74.604 Y100.846 E0.03665
G1 X74.427 Y100.642 F10800.000
G1 F8640.000
G1 X74.658 Y100.564 E-0.06634
G1 X74.743 Y100.359 E-0.05113
G1 X74.858 Y100.170 E-0.05113
G1 X75.002 Y100.002 E-0.05114
G1 X75.170 Y99.858 E-0.05113
G1 X75.359 Y99.743 E-0.05113
G1 X75.564 Y99.658 E-0.05114
G1 X75.779 Y99.606 E-0.05113
G1 X75.984 Y99.590 E-0.04740
G1 X77.233 Y99.590 E-0.28831
G1 E-0.04000 F2100.00000
G1 Z0.800 F10800.000
G1 X74.228 Y115.261
G1 Z0.200
G1 E0.80000 F2100.00000
G1 F1200.000
G1 X74.213 Y113.973 E0.04039
G1 X74.233 Y113.720 E0.00794
G1 X74.298 Y113.447 E0.00880
G1 X74.406 Y113.188 E0.00880
G1 X74.552 Y112.948 E0.00880
G1 X74.735 Y112.735 E0.00880
G1 X74.948 Y112.552 E0.00880
G1 X75.188 Y112.406 E0.00880
G1 X75.447 Y112.298 E0.00880
G1 X75.720 Y112.233 E0.00880
G1 X75.969 Y112.213 E0.00783
G1 X174.031 Y112.213 E3.07466
G1 X174.280 Y112.233 E0.00783
G1 X174.553 Y112.298 E0.00880
G1 X174.812 Y112.406 E0.00880
G1 X175.052 Y112.552 E0.00881
G1 X175.265 Y112.735 E0.00880
G1 X175.448 Y112.948 E0.00880
G1 X175.594 Y113.188 E0.00880
G1 X175.702 Y113.447 E0.00880
G1 X175.772 Y113.739 E0.00942
G1 X175.787 Y115.027 E0.04039
G1 X175.767 Y115.280 E0.00794
G1 X175.702 Y115.553 E0.00881
G1 X175.594 Y115.812 E0.00880
G1 X175.448 Y116.052 E0.00880
G1 X175.265 Y116.265 E0.00880
G1 X175.052 Y116.448 E0.00880
G1 X174.812 Y116.594 E0.00880
G1 X174.553 Y116.702 E0.00880
G1 X174.280 Y116.767 E0.00880
G1 X174.031 Y116.787 E0.00783
G1 X75.969 Y116.787 E3.07466
M73 Q0 S174
M73 P0 R173
G1 X75.720 Y116.767 E0.00783
G1 X75.447 Y116.702 E0.00880
G1 X75.188 Y116.594 E0.00881
G1 X74.948 Y116.448 E0.00880
G1 X74.735 Y116.265 E0.00880
G1 X74.552 Y116.052 E0.00880
G1 X74.406 Y115.812 E0.00880
G1 X74.298 Y115.553 E0.00880
G1 X74.242 Y115.319 E0.00754
G1 X74.609 Y115.231 F10800.000
G1 F1200.000
G1 X74.590 Y113.985 E0.03907
G1 X74.606 Y113.779 E0.00648
G1 X74.658 Y113.564 E0.00694
G1 X74.743 Y113.359 E0.00694
G1 X74.858 Y113.170 E0.00694
G1 X75.002 Y113.002 E0.00694
G1 X75.170 Y112.858 E0.00694
G1 X75.359 Y112.743 E0.00694
G1 X75.564 Y112.658 E0.00694
G1 X75.779 Y112.606 E0.00694
G1 X75.984 Y112.590 E0.00644
G1 X174.016 Y112.590 E3.07373
G1 X174.221 Y112.606 E0.00644
G1 X174.436 Y112.658 E0.00694
G1 X174.641 Y112.743 E0.00694
G1 X174.830 Y112.858 E0.00694
G1 X174.998 Y113.002 E0.00694
G1 X175.142 Y113.170 E0.00694
G1 X175.257 Y113.359 E0.00694
G1 X175.342 Y113.564 E0.00694
G1 X175.396 Y113.786 E0.00717
G1 X175.410 Y115.015 E0.03853
G1 X175.394 Y115.221 E0.00648
G1 X175.342 Y115.436 E0.00694
G1 X175.257 Y115.641 E0.00694
G1 X175.142 Y115.830 E0.00694
G1 X174.998 Y115.998 E0.00694
G1 X174.830 Y116.142 E0.00694
G1 X174.641 Y116.257 E0.00694
G1 X174.436 Y116.342 E0.00694
G1 X174.221 Y116.394 E0.00694
G1 X174.016 Y116.410 E0.00644
G1 X75.984 Y116.410 E3.07373
G1 X75.779 Y116.394 E0.00644
G1 X75.564 Y116.342 E0.00694
G1 X75.359 Y116.257 E0.00694
G1 X75.170 Y116.142 E0.00694
G1 X75.002 Y115.998 E0.00694
G1 X74.858 Y115.830 E0.00694
G1 X74.743 Y115.641 E0.00694
G1 X74.658 Y115.436 E0.00694
G1 X74.623 Y115.289 E0.00473
G1 X74.241 Y115.072 F10800.000
G1 F8640.000
G1 X74.590 Y113.985 E-0.30125
G1 X74.606 Y113.779 E-0.04769
G1 X74.658 Y113.564 E-0.05113
G1 X74.743 Y113.359 E-0.05113
G1 X74.858 Y113.170 E-0.05114
G1 X75.002 Y113.002 E-0.05113
G1 X75.170 Y112.858 E-0.05113
G1 X75.359 Y112.743 E-0.05114
G1 X75.564 Y112.658 E-0.05114
G1 X75.779 Y112.606 E-0.05113
G1 X75.788 Y112.605 E-0.00198
G1 E-0.04000 F2100.00000
G1 Z0.800 F10800.000
G1 X74.228 Y129.739
G1 Z0.200
G1 E0.80000 F2100.00000
G1 F1200.000
G1 X74.298 Y129.447 E0.00942
G1 X74.406 Y129.188 E0.00881
G1 X74.552 Y128.948 E0.00880
G1 X74.735 Y128.735 E0.00880
G1 X74.948 Y128.552 E0.00881
G1 X75.188 Y128.406 E0.00880
G1 X75.447 Y128.298 E0.00881
G1 X75.720 Y128.233 E0.00880
G1 X75.969 Y128.213 E0.00783
G1 X174.031 Y128.213 E3.07466
G1 X174.280 Y128.233 E0.00783
G1 X174.553 Y128.298 E0.00880
G1 X174.812 Y128.406 E0.00880
G1 X175.052 Y128.552 E0.00880
G1 X175.265 Y128.735 E0.00880
G1 X175.448 Y128.948 E0.00880
G1 X175.594 Y129.188 E0.00880
G1 X175.702 Y129.447 E0.00880
G1 X175.772 Y129.739 E0.00942
G1 X175.787 Y131.027 E0.04039
G1 X175.767 Y131.280 E0.00794
G1 X175.702 Y131.553 E0.00880
G1 X175.594 Y131.812 E0.00880
G1 X175.448 Y132.052 E0.00880
G1 X175.265 Y132.265 E0.00880
G1 X175.052 Y132.448 E0.00880
G1 X174.812 Y132.594 E0.00880
G1 X174.553 Y132.702 E0.00880
G1 X174.280 Y132.767 E0.00880
G1 X174.031 Y132.787 E0.00783
G1 X75.969 Y132.787 E3.07466
G1 X75.720 Y132.767 E0.00783
G1 X75.447 Y132.702 E0.00880
G1 X75.188 Y132.594 E0.00880
G1 X74.948 Y132.448 E0.00880
G1 X74.735 Y132.265 E0.00881
G1 X74.552 Y132.052 E0.00880
G1 X74.406 Y131.812 E0.00880
G1 X74.298 Y131.553 E0.00880
G1 X74.233 Y131.280 E0.00880
G1 X74.213 Y131.027 E0.00794
G1 X74.227 Y129.799 E0.03851
G1 X74.604 Y129.786 F10800.000
G1 F1200.000
G1 X74.658 Y129.564 E0.00717
G1 X74.743 Y129.359 E0.00694
G1 X74.858 Y129.170 E0.00694
G1 X75.002 Y129.002 E0.00694
G1 X75.170 Y128.858 E0.00694
G1 X75.359 Y128.743 E0.00694
G1 X75.564 Y128.658 E0.00694
G1 X75.779 Y128.606 E0.00694
G1 X75.984 Y128.590 E0.00644
G1 X174.016 Y128.590 E3.07373
G1 X174.221 Y128.606 E0.00644
G1 X174.436 Y128.658 E0.00694
G1 X174.641 Y128.743 E0.00694
G1 X174.830 Y128.858 E0.00694
G1 X174.998 Y129.002 E0.00694
G1 X175.142 Y129.170 E0.00694
G1 X175.257 Y129.359 E0.00694
G1 X175.342 Y129.564 E0.00694
G1 X175.396 Y129.786 E0.00717
G1 X175.410 Y131.015 E0.03853
G1 X175.394 Y131.221 E0.00648
G1 X175.342 Y131.436 E0.00694
G1 X175.257 Y131.641 E0.00694
G1 X175.142 Y131.830 E0.00694
G1 X174.998 Y131.998 E0.00694
G1 X174.830 Y132.142 E0.00694
G1 X174.641 Y132.257 E0.00694
G1 X174.436 Y132.342 E0.00694
G1 X174.221 Y132.394 E0.00694
G1 X174.016 Y132.410 E0.00644
G1 X75.984 Y132.410 E3.07373
G1 X75.779 Y132.394 E0.00644
G1 X75.564 Y132.342 E0.00694
G1 X75.359 Y132.257 E0.00694
G1 X75.170 Y132.142 E0.00694
G1 X75.002 Y131.998 E0.00694
G1 X74.858 Y131.830 E0.00694
G1 X74.743 Y131.641 E0.00694
G1 X74.658 Y131.436 E0.00694
G1 X74.606 Y131.221 E0.00694
G1 X74.590 Y131.015 E0.00648
G1 X74.604 Y129.846 E0.03665
G1 X74.427 Y129.642 F10800.000
G1 F8640.000
G1 X74.658 Y129.564 E-0.06635
G1 X74.743 Y129.359 E-0.05114
G1 X74.858 Y129.170 E-0.05113
G1 X75.002 Y129.002 E-0.05113
G1 X75.170 Y128.858 E-0.05114
G1 X75.359 Y128.743 E-0.05113
G1 X75.564 Y128.658 E-0.05114
G1 X75.779 Y128.606 E-0.05113
G1 X75.984 Y128.590 E-0.04740
G1 X77.233 Y128.590 E-0.28831
G1 E-0.04000 F2100.00000
G1 Z0.800 F10800.000
G1 X74.228 Y144.739
G1 Z0.200
G1 E0.80000 F2100.00000
G1 F1200.000
G1 X74.298 Y144.447 E0.00942
G1 X74.406 Y144.188 E0.00880
G1 X74.552 Y143.948 E0.00880
G1 X74.735 Y143.735 E0.00880
G1 X74.948 Y143.552 E0.00880
G1 X75.188 Y143.406 E0.00880
G1 X75.447 Y143.298 E0.00880
G1 X75.720 Y143.233 E0.00880
G1 X75.969 Y143.213 E0.00783
G1 X174.031 Y143.213 E3.07466
G1 X174.280 Y143.233 E0.00783
G1 X174.553 Y143.298 E0.00880
G1 X174.812 Y143.406 E0.00880
G1 X175.052 Y143.552 E0.00881
G1 X175.265 Y143.735 E0.00880
G1 X175.448 Y143.948 E0.00880
G1 X175.594 Y144.188 E0.00880
G1 X175.702 Y144.447 E0.00880
G1 X175.772 Y144.739 E0.00942
G1 X175.787 Y146.027 E0.04039
G1 X175.767 Y146.280 E0.00794
G1 X175.702 Y146.553 E0.00880
G1 X175.594 Y146.812 E0.00880
G1 X175.448 Y147.052 E0.00880
G1 X175.265 Y147.265 E0.00880
G1 X175.052 Y147.448 E0.00880
G1 X174.812 Y147.594 E0.00880
G1 X174.553 Y147.702 E0.00881
G1 X174.280 Y147.767 E0.00881
G1 X174.031 Y147.787 E0.00783
G1 X75.969 Y147.787 E3.07466
G1 X75.720 Y147.767 E0.00783
G1 X75.447 Y147.702 E0.00880
G1 X75.188 Y147.594 E0.00880
G1 X74.948 Y147.448 E0.00880
G1 X74.735 Y147.265 E0.00880
G1 X74.552 Y147.052 E0.00880
G1 X74.406 Y146.812 E0.00880
G1 X74.298 Y146.553 E0.00880
G1 X74.233 Y146.280 E0.00880
G1 X74.213 Y146.027 E0.00794
G1 X74.227 Y144.799 E0.03851
G1 X74.604 Y144.786 F10800.000
G1 F1200.000
G1 X74.658 Y144.564 E0.00717
G1 X74.743 Y144.359 E0.00694
G1 X74.858 Y144.170 E0.00694
G1 X75.002 Y144.002 E0.00694
G1 X75.170 Y143.858 E0.00694
G1 X75.359 Y143.743 E0.00694
G1 X75.564 Y143.658 E0.00694
G1 X75.779 Y143.606 E0.00694
G1 X75.984 Y143.590 E0.00644
G1 X174.016 Y143.590 E3.07373
G1 X174.221 Y143.606 E0.00644
G1 X174.436 Y143.658 E0.00694
G1 X174.641 Y143.743 E0.00694
G1 X174.830 Y143.858 E0.00694
G1 X174.998 Y144.002 E0.00694
G1 X175.142 Y144.170 E0.00694
G1 X175.257 Y144.359 E0.00694
G1 X175.342 Y144.564 E0.00694
G1 X175.396 Y144.786 E0.00717
G1 X175.410 Y146.015 E0.03853
G1 X175.394 Y146.221 E0.00648
G1 X175.342 Y146.436 E0.00694
G1 X175.257 Y146.641 E0.00694
G1 X175.142 Y146.830 E0.00694
G1 X174.998 Y146.998 E0.00694
G1 X174.830 Y147.142 E0.00694
G1 X174.641 Y147.257 E0.00694
G1 X174.436 Y147.342 E0.00695
G1 X174.221 Y147.394 E0.00694
G1 X174.016 Y147.410 E0.00644
G1 X75.984 Y147.410 E3.07373
G1 X75.779 Y147.394 E0.00644
G1 X75.564 Y147.342 E0.00694
G1 X75.359 Y147.257 E0.00694
G1 X75.170 Y147.142 E0.00694
G1 X75.002 Y146.998 E0.00694
G1 X74.858 Y146.830 E0.00694
G1 X74.743 Y146.641 E0.00694
G1 X74.658 Y146.436 E0.00694
G1 X74.606 Y146.221 E0.00694
G1 X74.590 Y146.015 E0.00648
G1 X74.604 Y144.846 E0.03665
G1 X74.427 Y144.642 F10800.000
G1 F8640.000
G1 X74.658 Y144.564 E-0.06635
G1 X74.743 Y144.359 E-0.05114
G1 X74.858 Y144.170 E-0.05113
G1 X75.002 Y144.002 E-0.05113
G1 X75.170 Y143.858 E-0.05114
G1 X75.359 Y143.743 E-0.05113
G1 X75.564 Y143.658 E-0.05114
G1 X75.779 Y143.606 E-0.05113
G1 X75.984 Y143.590 E-0.04740
G1 X77.233 Y143.590 E-0.28831
G1 E-0.04000 F2100.00000
G1 Z0.800 F10800.000
G1 X72.763 Y149.427
G1 Z0.200
G1 E0.80000 F2100.00000
G1 F1200.000
G1 X73.348 Y149.691 E0.02015
G1 X73.881 Y150.051 E0.02016
G1 X74.345 Y150.496 E0.02016
G1 X74.727 Y151.013 E0.02016
G1 X75.017 Y151.587 E0.02015
G1 X75.205 Y152.202 E0.02015
G1 X75.287 Y152.839 E0.02016
G1 X75.259 Y153.481 E0.02015
G1 X75.124 Y154.110 E0.02015
G1 X74.884 Y154.706 E0.02016
G1 X74.547 Y155.254 E0.02016
G1 X74.122 Y155.736 E0.02016
G1 X73.622 Y156.140 E0.02016
G1 X73.061 Y156.453 E0.02015
G1 X72.455 Y156.668 E0.02015
G1 X71.821 Y156.776 E0.02016
G1 X71.179 Y156.776 E0.02015
G1 X70.545 Y156.668 E0.02016
G1 X69.939 Y156.453 E0.02015
G1 X69.378 Y156.140 E0.02015
G1 X68.903 Y155.756 E0.01914
G1 X68.454 Y155.256 E0.02107
G1 X68.116 Y154.706 E0.02024
G1 X67.876 Y154.110 E0.02016
G1 X67.741 Y153.481 E0.02016
G1 X67.713 Y152.839 E0.02015
G1 X67.795 Y152.202 E0.02016
G1 X67.983 Y151.587 E0.02016
G1 X68.273 Y151.013 E0.02015
G1 X68.655 Y150.496 E0.02015
G1 X69.119 Y150.051 E0.02016
G1 X69.652 Y149.691 E0.02015
G1 X70.237 Y149.427 E0.02015
G1 X70.859 Y149.265 E0.02016
G1 X71.468 Y149.213 E0.01914
G1 X72.138 Y149.264 E0.02108
