; generated by PrusaSlicer 2.2.0+win64 on 2021-01-08 at 18:25:03 UTC

; 

; external perimeters extrusion width = 0.45mm
; perimeters extrusion width = 0.45mm
; infill extrusion width = 0.45mm
; solid infill extrusion width = 0.45mm
; top infill extrusion width = 0.40mm
; first layer extrusion width = 0.42mm

M73 P0 R77
M73 Q0 S78
M201 X1000 Y1000 Z200 E5000 ; sets maximum accelerations, mm/sec^2
M203 X200 Y200 Z12 E120 ; sets maximum feedrates, mm/sec
M204 P1250 R1250 T1250 ; sets acceleration (P, T) and retract acceleration (R), mm/sec^2
M205 X8.00 Y8.00 Z0.40 E4.50 ; sets the jerk limits, mm/sec
M205 S0 T0 ; sets the minimum extruding and travel feed rate, mm/sec
M107
M862.3 P "MK3S" ; printer model check
M862.1 P0.4 ; nozzle diameter check
M115 U3.9.1 ; tell printer latest fw version
G90 ; use absolute coordinates
M83 ; extruder relative mode
M104 S215 ; set extruder temp
M140 S60 ; set bed temp
M190 S60 ; wait for bed temp
M109 S215 ; wait for extruder temp
G28 W ; home all without mesh bed level
G80 ; mesh bed leveling
G1 Y-3.0 F1000.0 ; go outside print area
G92 E0.0
G1 X60.0 E9.0 F1000.0 ; intro line
M73 Q0 S78
M73 P0 R77
G1 X100.0 E12.5 F1000.0 ; intro line
G92 E0.0
M221 S95

; Don't change E values below. Excessive value can damage the printer.

M907 E538 ; set extruder motor current
G21 ; set units to millimeters
G90 ; use absolute coordinates
M83 ; use relative distances for extrusion
M900 K0.05 ; Filament gcode LA 1.5
M900 K30 ; Filament gcode LA 1.0
;BEFORE_LAYER_CHANGE
G92 E0.0
;0.2


G1 E-0.80000 F2100.00000
G1 Z0.600 F10800.000
;AFTER_LAYER_CHANGE
;0.2
G1 X58.244 Y44.049
G1 Z0.200
G1 E0.80000 F2100.00000
M204 S1000
G1 F1200.000
G1 X58.654 Y43.572 E0.01972
G1 X59.138 Y43.184 E0.01945
G1 X59.796 Y42.847 E0.02318
G1 X60.404 Y42.676 E0.01982
G1 X60.985 Y42.623 E0.01828
G1 X189.004 Y42.623 E4.01395
G1 X189.639 Y42.686 E0.02003
G1 X190.357 Y42.910 E0.02358
G1 X190.912 Y43.217 E0.01989
G1 X191.374 Y43.599 E0.01878
G1 X191.757 Y44.052 E0.01860
G1 X192.073 Y44.607 E0.02002
G1 X192.307 Y45.322 E0.02360
G1 X192.376 Y45.951 E0.01985
G1 X192.377 Y164.019 E3.70194
G1 X192.309 Y164.667 E0.02042
G1 X192.076 Y165.389 E0.02379
G1 X191.756 Y165.951 E0.02030
G1 X191.344 Y166.431 E0.01983
G1 X190.862 Y166.816 E0.01932
G1 X190.207 Y167.152 E0.02308
G1 X189.599 Y167.323 E0.01981
G1 X189.018 Y167.377 E0.01829
G1 X61.000 Y167.377 E4.01393
G1 X60.344 Y167.312 E0.02066
G1 X59.625 Y167.082 E0.02369
G1 X59.049 Y166.756 E0.02073
G1 X58.572 Y166.346 E0.01972
G1 X58.186 Y165.865 E0.01933
G1 X57.850 Y165.211 E0.02307
G1 X57.677 Y164.599 E0.01993
G1 X57.623 Y164.022 E0.01817
G1 X57.623 Y46.000 E3.70050
G1 X57.688 Y45.344 E0.02066
G1 X57.918 Y44.623 E0.02373
G1 X58.214 Y44.101 E0.01881
G1 F8640.000
G1 X58.654 Y43.572 E-0.15886
G1 X59.138 Y43.184 E-0.14325
G1 X59.796 Y42.847 E-0.17067
G1 X60.404 Y42.676 E-0.14594
G1 X60.985 Y42.623 E-0.13465
G1 X61.014 Y42.623 E-0.00663
G1 E-0.04000 F2100.00000
G1 Z0.800 F10800.000
G1 X175.655 Y155.996
G1 Z0.200
G1 E0.80000 F2100.00000
G1 F1200.000
G1 X176.119 Y155.551 E0.02016
G1 X176.652 Y155.191 E0.02016
G1 X177.237 Y154.927 E0.02016
G1 X177.859 Y154.765 E0.02016
G1 X178.471 Y154.713 E0.01923
G1 X179.138 Y154.764 E0.02100
G1 X179.763 Y154.927 E0.02023
G1 X180.348 Y155.191 E0.02015
G1 X180.881 Y155.551 E0.02015
G1 X181.345 Y155.996 E0.02016
G1 X181.727 Y156.513 E0.02016
G1 X182.017 Y157.087 E0.02015
G1 X182.205 Y157.702 E0.02015
G1 X182.287 Y158.339 E0.02016
G1 X182.259 Y158.981 E0.02016
G1 X182.124 Y159.610 E0.02015
G1 X181.884 Y160.206 E0.02016
G1 X181.547 Y160.754 E0.02016
G1 X181.122 Y161.236 E0.02015
G1 X180.622 Y161.640 E0.02016
G1 X180.061 Y161.953 E0.02015
G1 X179.455 Y162.168 E0.02016
G1 X178.838 Y162.273 E0.01963
G1 X178.500 Y162.288 E0.01061
G1 X178.162 Y162.273 E0.01061
G1 X177.545 Y162.168 E0.01963
G1 X176.939 Y161.953 E0.02016
G1 X176.378 Y161.640 E0.02016
G1 X175.878 Y161.236 E0.02015
G1 X175.453 Y160.754 E0.02016
G1 X175.116 Y160.206 E0.02015
G1 X174.876 Y159.610 E0.02015
G1 X174.741 Y158.981 E0.02016
G1 X174.713 Y158.339 E0.02015
G1 X174.795 Y157.702 E0.02016
G1 X174.983 Y157.087 E0.02016
G1 X175.273 Y156.513 E0.02015
G1 X175.619 Y156.044 E0.01827
G1 X175.922 Y156.269 F10800.000
G1 F1200.000
G1 X176.357 Y155.846 E0.01901
G1 X176.836 Y155.522 E0.01814
G1 X177.363 Y155.283 E0.01814
G1 X177.923 Y155.138 E0.01814
G1 X178.472 Y155.091 E0.01726
G1 X179.076 Y155.137 E0.01898
G1 X179.637 Y155.283 E0.01817
G1 X180.164 Y155.522 E0.01814
G1 X180.643 Y155.846 E0.01814
G1 X181.061 Y156.246 E0.01814
G1 X181.405 Y156.711 E0.01814
G1 X181.665 Y157.228 E0.01814
G1 X181.835 Y157.781 E0.01814
G1 X181.908 Y158.355 E0.01814
G1 X181.884 Y158.933 E0.01814
G1 X181.762 Y159.499 E0.01814
G1 X181.546 Y160.036 E0.01814
G1 X181.243 Y160.529 E0.01814
G1 X180.861 Y160.963 E0.01814
G1 X180.410 Y161.326 E0.01814
G1 X179.905 Y161.609 E0.01814
G1 X179.360 Y161.801 E0.01814
G1 X178.798 Y161.898 E0.01787
G1 X178.500 Y161.910 E0.00935
G1 X178.202 Y161.898 E0.00935
G1 X177.640 Y161.801 E0.01787
G1 X177.095 Y161.609 E0.01814
G1 X176.590 Y161.326 E0.01814
G1 X176.139 Y160.963 E0.01814
G1 X175.757 Y160.529 E0.01814
G1 X175.454 Y160.036 E0.01814
G1 X175.238 Y159.499 E0.01814
G1 X175.116 Y158.933 E0.01814
G1 X175.092 Y158.355 E0.01814
G1 X175.165 Y157.781 E0.01814
G1 X175.335 Y157.228 E0.01814
G1 X175.595 Y156.711 E0.01814
G1 X175.887 Y156.317 E0.01539
G1 X175.792 Y155.890 F10800.000
G1 F8640.000
G1 X176.357 Y155.846 E-0.15365
G1 X176.836 Y155.522 E-0.13361
G1 X177.363 Y155.283 E-0.13361
G1 X177.923 Y155.138 E-0.13361
G1 X178.472 Y155.091 E-0.12713
G1 X178.811 Y155.117 E-0.07840
G1 E-0.04000 F2100.00000
G1 Z0.800 F10800.000
G1 X177.545 Y60.668
G1 Z0.200
G1 E0.80000 F2100.00000
G1 F1200.000
G1 X176.939 Y60.453 E0.02015
G1 X176.378 Y60.140 E0.02016
G1 X175.878 Y59.736 E0.02015
G1 X175.453 Y59.254 E0.02016
G1 X175.116 Y58.706 E0.02015
G1 X174.876 Y58.110 E0.02015
G1 X174.741 Y57.481 E0.02016
G1 X174.713 Y56.839 E0.02015
G1 X174.795 Y56.202 E0.02016
G1 X174.983 Y55.587 E0.02016
G1 X175.273 Y55.013 E0.02015
G1 X175.655 Y54.496 E0.02015
G1 X176.119 Y54.051 E0.02015
G1 X176.652 Y53.691 E0.02016
G1 X177.237 Y53.427 E0.02016
G1 X177.859 Y53.265 E0.02015
G1 X178.471 Y53.213 E0.01923
G1 X179.138 Y53.264 E0.02100
G1 X179.763 Y53.427 E0.02023
G1 X180.348 Y53.691 E0.02015
G1 X180.881 Y54.051 E0.02016
G1 X181.345 Y54.496 E0.02016
G1 X181.727 Y55.013 E0.02015
G1 X182.017 Y55.587 E0.02016
G1 X182.205 Y56.202 E0.02015
G1 X182.287 Y56.839 E0.02016
G1 X182.259 Y57.481 E0.02016
G1 X182.124 Y58.110 E0.02015
G1 X181.884 Y58.706 E0.02016
G1 X181.547 Y59.254 E0.02016
G1 X181.122 Y59.736 E0.02015
G1 X180.622 Y60.140 E0.02016
G1 X180.061 Y60.453 E0.02015
G1 X179.455 Y60.668 E0.02016
G1 X178.838 Y60.773 E0.01963
G1 X178.500 Y60.788 E0.01061
G1 X178.162 Y60.773 E0.01061
G1 X177.604 Y60.678 E0.01775
G1 X177.668 Y60.306 F10800.000
G1 F1200.000
G1 X177.095 Y60.109 E0.01901
G1 X176.590 Y59.826 E0.01814
G1 X176.139 Y59.463 E0.01814
G1 X175.757 Y59.029 E0.01814
G1 X175.454 Y58.536 E0.01814
G1 X175.238 Y57.999 E0.01814
G1 X175.116 Y57.433 E0.01814
G1 X175.092 Y56.855 E0.01814
G1 X175.165 Y56.281 E0.01814
G1 X175.335 Y55.728 E0.01814
G1 X175.595 Y55.211 E0.01814
G1 X175.939 Y54.746 E0.01814
G1 X176.357 Y54.346 E0.01814
G1 X176.836 Y54.022 E0.01814
G1 X177.364 Y53.783 E0.01814
G1 X177.923 Y53.638 E0.01814
G1 X178.472 Y53.591 E0.01726
G1 X179.076 Y53.637 E0.01898
G1 X179.637 Y53.783 E0.01817
G1 X180.164 Y54.022 E0.01814
G1 X180.643 Y54.346 E0.01814
G1 X181.061 Y54.746 E0.01814
G1 X181.405 Y55.211 E0.01814
G1 X181.665 Y55.728 E0.01814
G1 X181.835 Y56.281 E0.01814
G1 X181.908 Y56.855 E0.01814
G1 X181.884 Y57.433 E0.01814
G1 X181.762 Y57.999 E0.01814
G1 X181.546 Y58.536 E0.01814
G1 X181.243 Y59.029 E0.01814
G1 X180.861 Y59.463 E0.01814
G1 X180.410 Y59.826 E0.01814
G1 X179.905 Y60.109 E0.01814
G1 X179.360 Y60.301 E0.01814
G1 X178.798 Y60.398 E0.01787
G1 X178.500 Y60.410 E0.00935
G1 X178.202 Y60.398 E0.00935
G1 X177.727 Y60.316 E0.01511
G1 X177.385 Y60.589 F10800.000
G1 F8640.000
G1 X177.095 Y60.109 E-0.15365
G1 X176.590 Y59.826 E-0.13361
G1 X176.139 Y59.463 E-0.13360
G1 X175.757 Y59.029 E-0.13361
G1 X175.454 Y58.536 E-0.13361
G1 X175.338 Y58.247 E-0.07192
G1 E-0.04000 F2100.00000
G1 Z0.800 F10800.000
G1 X75.287 Y56.839
G1 Z0.200
G1 E0.80000 F2100.00000
G1 F1200.000
G1 X75.259 Y57.481 E0.02016
G1 X75.124 Y58.110 E0.02015
G1 X74.884 Y58.706 E0.02015
G1 X74.563 Y59.228 E0.01923
G1 X74.124 Y59.735 E0.02100
G1 X73.622 Y60.140 E0.02023
G1 X73.061 Y60.453 E0.02015
G1 X72.455 Y60.668 E0.02016
G1 X71.838 Y60.773 E0.01963
G1 X71.500 Y60.788 E0.01061
G1 X71.162 Y60.773 E0.01061
G1 X70.545 Y60.668 E0.01963
G1 X69.939 Y60.453 E0.02016
G1 X69.378 Y60.140 E0.02015
G1 X68.878 Y59.736 E0.02016
G1 X68.453 Y59.254 E0.02016
G1 X68.116 Y58.706 E0.02016
G1 X67.876 Y58.110 E0.02015
G1 X67.741 Y57.481 E0.02015
G1 X67.713 Y56.839 E0.02016
G1 X67.795 Y56.202 E0.02016
G1 X67.983 Y55.587 E0.02015
G1 X68.273 Y55.013 E0.02016
G1 X68.655 Y54.496 E0.02015
G1 X69.119 Y54.051 E0.02016
G1 X69.652 Y53.691 E0.02016
G1 X70.237 Y53.427 E0.02015
G1 X70.859 Y53.265 E0.02015
G1 X71.471 Y53.213 E0.01923
G1 X72.138 Y53.264 E0.02100
G1 X72.763 Y53.427 E0.02023
G1 X73.348 Y53.691 E0.02015
G1 X73.881 Y54.051 E0.02016
G1 X74.345 Y54.496 E0.02015
G1 X74.727 Y55.013 E0.02015
G1 X75.017 Y55.587 E0.02016
G1 X75.205 Y56.202 E0.02015
G1 X75.279 Y56.780 E0.01827
G1 X74.905 Y56.828 F10800.000
G1 F1200.000
G1 X74.884 Y57.433 E0.01901
G1 X74.762 Y57.999 E0.01814
G1 X74.546 Y58.536 E0.01814
G1 X74.258 Y59.005 E0.01726
G1 X73.861 Y59.462 E0.01898
G1 X73.410 Y59.826 E0.01817
G1 X72.905 Y60.109 E0.01814
G1 X72.360 Y60.301 E0.01814
G1 X71.798 Y60.398 E0.01787
G1 X71.500 Y60.410 E0.00935
G1 X71.202 Y60.398 E0.00935
G1 X70.640 Y60.301 E0.01787
G1 X70.095 Y60.109 E0.01814
G1 X69.590 Y59.826 E0.01814
G1 X69.139 Y59.463 E0.01814
G1 X68.757 Y59.029 E0.01814
G1 X68.454 Y58.536 E0.01814
G1 X68.238 Y57.999 E0.01814
G1 X68.116 Y57.433 E0.01814
G1 X68.092 Y56.855 E0.01814
G1 X68.165 Y56.281 E0.01814
G1 X68.335 Y55.728 E0.01814
G1 X68.595 Y55.211 E0.01814
G1 X68.939 Y54.746 E0.01814
G1 X69.357 Y54.346 E0.01814
G1 X69.836 Y54.022 E0.01814
G1 X70.364 Y53.783 E0.01814
G1 X70.923 Y53.638 E0.01814
G1 X71.472 Y53.591 E0.01726
G1 X72.076 Y53.637 E0.01898
G1 X72.636 Y53.783 E0.01817
G1 X73.164 Y54.022 E0.01814
G1 X73.643 Y54.346 E0.01814
G1 X74.061 Y54.746 E0.01814
G1 X74.405 Y55.211 E0.01814
G1 X74.665 Y55.728 E0.01814
G1 X74.835 Y56.281 E0.01814
G1 X74.897 Y56.768 E0.01539
G1 X75.261 Y57.011 F10800.000
G1 F8640.000
G1 X74.884 Y57.433 E-0.15365
G1 X74.762 Y57.999 E-0.13361
G1 X74.546 Y58.536 E-0.13361
G1 X74.258 Y59.005 E-0.12713
G1 X73.861 Y59.462 E-0.13980
G1 X73.618 Y59.659 E-0.07221
G1 E-0.04000 F2100.00000
G1 Z0.800 F10800.000
G1 X71.471 Y154.713
G1 Z0.200
G1 E0.80000 F2100.00000
G1 F1200.000
G1 X72.138 Y154.764 E0.02100
G1 X72.763 Y154.927 E0.02023
G1 X73.348 Y155.191 E0.02016
G1 X73.881 Y155.551 E0.02015
G1 X74.345 Y155.996 E0.02016
G1 X74.727 Y156.513 E0.02016
G1 X75.017 Y157.087 E0.02016
G1 X75.205 Y157.702 E0.02015
G1 X75.287 Y158.339 E0.02016
G1 X75.259 Y158.981 E0.02016
G1 X75.124 Y159.610 E0.02015
G1 X74.884 Y160.206 E0.02016
G1 X74.547 Y160.754 E0.02016
G1 X74.122 Y161.236 E0.02015
G1 X73.622 Y161.640 E0.02016
G1 X73.061 Y161.953 E0.02015
G1 X72.455 Y162.168 E0.02016
G1 X71.838 Y162.273 E0.01963
G1 X71.500 Y162.288 E0.01061
G1 X71.162 Y162.273 E0.01061
G1 X70.545 Y162.168 E0.01963
G1 X69.939 Y161.953 E0.02016
G1 X69.378 Y161.640 E0.02015
G1 X68.878 Y161.236 E0.02016
G1 X68.453 Y160.754 E0.02015
G1 X68.116 Y160.206 E0.02016
G1 X67.876 Y159.610 E0.02016
G1 X67.741 Y158.981 E0.02015
G1 X67.713 Y158.339 E0.02016
G1 X67.795 Y157.702 E0.02016
G1 X67.983 Y157.087 E0.02015
G1 X68.273 Y156.513 E0.02015
G1 X68.655 Y155.996 E0.02016
G1 X69.119 Y155.551 E0.02016
G1 X69.652 Y155.191 E0.02015
G1 X70.237 Y154.927 E0.02016
G1 X70.859 Y154.765 E0.02016
G1 X71.411 Y154.718 E0.01735
G1 X71.443 Y155.093 F10800.000
G1 F1200.000
G1 X72.076 Y155.137 E0.01990
G1 X72.637 Y155.283 E0.01817
G1 X73.164 Y155.522 E0.01814
G1 X73.643 Y155.846 E0.01814
G1 X74.061 Y156.246 E0.01814
G1 X74.405 Y156.711 E0.01814
G1 X74.665 Y157.228 E0.01814
G1 X74.835 Y157.781 E0.01814
G1 X74.908 Y158.355 E0.01814
G1 X74.884 Y158.933 E0.01814
G1 X74.762 Y159.499 E0.01814
G1 X74.546 Y160.036 E0.01814
G1 X74.243 Y160.529 E0.01814
G1 X73.861 Y160.963 E0.01814
G1 X73.410 Y161.326 E0.01814
G1 X72.905 Y161.609 E0.01814
G1 X72.360 Y161.801 E0.01814
G1 X71.798 Y161.898 E0.01787
G1 X71.500 Y161.910 E0.00935
G1 X71.202 Y161.898 E0.00935
G1 X70.640 Y161.801 E0.01787
G1 X70.095 Y161.609 E0.01814
G1 X69.590 Y161.326 E0.01814
G1 X69.139 Y160.963 E0.01814
G1 X68.757 Y160.529 E0.01814
G1 X68.454 Y160.036 E0.01814
G1 X68.238 Y159.499 E0.01814
G1 X68.116 Y158.933 E0.01814
G1 X68.092 Y158.355 E0.01814
G1 X68.165 Y157.781 E0.01814
G1 X68.335 Y157.228 E0.01814
G1 X68.595 Y156.711 E0.01814
G1 X68.939 Y156.246 E0.01814
G1 X69.357 Y155.846 E0.01814
G1 X69.836 Y155.522 E0.01814
G1 X70.363 Y155.283 E0.01814
G1 X70.923 Y155.138 E0.01814
G1 X71.383 Y155.098 E0.01446
G1 X71.639 Y154.745 F10800.000
G1 F8640.000
G1 X72.076 Y155.137 E-0.16022
G1 X72.637 Y155.283 E-0.13380
G1 X73.164 Y155.522 E-0.13361
G1 X73.643 Y155.846 E-0.13361
G1 X74.061 Y156.246 E-0.13361
G1 X74.229 Y156.473 E-0.06516
G1 E-0.04000 F2100.00000
G1 Z0.800 F10800.000
G1 X67.193 Y64.157
G1 Z0.200
G1 E0.80000 F2100.00000
G1 F1200.000
G1 X67.193 Y150.888 E2.71939
G1 X70.163 Y151.761 E0.09706
G1 X72.350 Y152.839 E0.07646
G1 X74.321 Y154.275 E0.07646
G1 X76.018 Y156.026 E0.07646
G1 X77.390 Y158.042 E0.07646
G1 X78.635 Y160.787 E0.09449
G1 X171.365 Y160.787 E2.90750
G1 X172.608 Y158.045 E0.09439
G1 X173.978 Y156.031 E0.07636
G1 X175.671 Y154.281 E0.07636
G1 X177.639 Y152.845 E0.07636
G1 X179.822 Y151.767 E0.07636
G1 X182.787 Y150.891 E0.09693
G1 X182.787 Y64.154 E2.71957
M73 Q1 S77
G1 X178.877 Y63.208 E0.12613
G1 X175.820 Y61.875 E0.10456
G1 X173.040 Y60.033 E0.10456
G1 X170.621 Y57.738 E0.10456
G1 X168.634 Y55.059 E0.10456
G1 X167.151 Y52.097 E0.10388
G1 X167.129 Y51.994 E0.00330
G1 X167.151 Y51.914 E0.00261
G1 X167.241 Y51.819 E0.00409
G1 X167.368 Y51.787 E0.00413
G1 X174.031 Y51.787 E0.20890
G1 X174.280 Y51.767 E0.00783
G1 X174.553 Y51.702 E0.00880
G1 X174.812 Y51.594 E0.00880
M73 P1 R76
G1 X175.052 Y51.448 E0.00880
G1 X175.265 Y51.265 E0.00880
G1 X175.448 Y51.052 E0.00880
G1 X175.594 Y50.812 E0.00880
G1 X175.702 Y50.553 E0.00880
G1 X175.767 Y50.280 E0.00880
G1 X175.787 Y50.031 E0.00783
G1 X175.787 Y48.969 E0.03329
G1 X175.767 Y48.720 E0.00783
G1 X175.702 Y48.447 E0.00880
G1 X175.594 Y48.188 E0.00880
G1 X175.448 Y47.948 E0.00880
G1 X175.265 Y47.735 E0.00880
G1 X175.052 Y47.552 E0.00880
G1 X174.812 Y47.406 E0.00880
G1 X174.553 Y47.298 E0.00880
G1 X174.280 Y47.233 E0.00880
G1 X174.031 Y47.213 E0.00783
G1 X167.296 Y47.213 E0.21116
G1 X167.296 Y45.787 E0.04470
G1 X189.032 Y45.797 E0.68150
G1 X189.158 Y45.865 E0.00449
G1 X189.195 Y45.936 E0.00251
G1 X189.213 Y46.053 E0.00372
G1 X189.213 Y163.947 E3.69646
G1 X189.192 Y164.080 E0.00423
G1 X189.145 Y164.145 E0.00252
G1 X189.080 Y164.192 E0.00252
G1 X188.947 Y164.213 E0.00423
G1 X61.053 Y164.213 E4.01000
G1 X60.920 Y164.192 E0.00423
G1 X60.855 Y164.145 E0.00252
G1 X60.808 Y164.080 E0.00252
G1 X60.787 Y163.947 E0.00423
G1 X60.798 Y45.968 E3.69914
G1 X60.865 Y45.842 E0.00449
G1 X60.936 Y45.805 E0.00251
G1 X61.053 Y45.787 E0.00372
G1 X82.704 Y45.787 E0.67883
G1 X82.704 Y47.213 E0.04471
G1 X75.969 Y47.213 E0.21116
G1 X75.720 Y47.233 E0.00783
G1 X75.447 Y47.298 E0.00880
G1 X75.188 Y47.406 E0.00880
G1 X74.948 Y47.552 E0.00880
G1 X74.735 Y47.735 E0.00880
G1 X74.552 Y47.948 E0.00880
G1 X74.406 Y48.188 E0.00880
G1 X74.298 Y48.447 E0.00880
G1 X74.233 Y48.720 E0.00880
G1 X74.213 Y48.973 E0.00794
G1 X74.228 Y50.261 E0.04039
G1 X74.298 Y50.553 E0.00942
G1 X74.406 Y50.812 E0.00880
G1 X74.552 Y51.052 E0.00880
G1 X74.735 Y51.265 E0.00880
G1 X74.948 Y51.448 E0.00881
G1 X75.188 Y51.594 E0.00880
G1 X75.447 Y51.702 E0.00880
G1 X75.720 Y51.767 E0.00880
G1 X75.969 Y51.787 E0.00782
